libs/ui/packages/crypto-icons/src/svg/BCN.svg

<svg width="24" height="24" viewBox="0 0 24 24" fill="none">
<path d="M18.0441 12.7301C17.5716 12.2081 16.8921 11.8841 16.0041 11.7581V11.7394C16.7819 11.6134 17.3931 11.2946 17.8086 10.7846C18.2303 10.2788 18.4593 9.64011 18.4551 8.98162C18.4551 7.88587 18.1026 7.14112 17.3721 6.55537C16.6416 5.97037 15.5451 5.77762 14.0594 5.77762H8.44862V10.9999H5.22662V13.0001H14.0219C14.7141 13.0001 15.2339 13.0489 15.5774 13.3256C15.9209 13.6024 16.0964 13.9601 16.0964 14.4889C16.0964 15.0176 15.9231 15.4691 15.5774 15.7526C15.2324 16.0354 14.7119 16.2221 14.0219 16.2221H11.0039V14.6666H8.44862V18.2224H14.2439C15.7176 18.2224 16.8441 17.8376 17.6256 17.2399C18.4064 16.6421 18.7731 15.7594 18.7731 14.6756C18.7828 13.9586 18.5226 13.2642 18.0441 12.7301ZM13.6994 10.9946H11.0039V7.77262H13.6994C15.0854 7.77262 15.7769 8.31337 15.7769 9.38362C15.7769 10.4539 15.0854 10.9946 13.6994 10.9946Z" fill="#F04086"/>
</svg>

<svg width="24" height="24" viewBox="0 0 24 24" fill="none"><path fill="#f04086" d="M18.044 12.73q-.708-.783-2.04-.972v-.019c.778-.126 1.39-.444 1.805-.954.421-.506.65-1.145.646-1.803 0-1.096-.352-1.84-1.083-2.427-.73-.585-1.827-.777-3.313-.777H8.45V11H5.227v2h8.795c.692 0 1.212.049 1.555.326.344.276.52.634.52 1.163s-.174.98-.52 1.264c-.345.282-.865.47-1.555.47h-3.018v-1.556H8.449v3.555h5.795c1.474 0 2.6-.384 3.382-.982.78-.598 1.147-1.48 1.147-2.564a2.86 2.86 0 0 0-.729-1.946M13.7 10.995h-2.695V7.773H13.7c1.386 0 2.078.54 2.078 1.61s-.692 1.612-2.078 1.612"/></svg>
